src/shared/img/examples/en/green_case_one_ebay_en.svg

<?xml version="1.0" encoding="UTF-8" standalone="no"?>
<svg
   width="576"
   height="217.5"
   viewBox="0 0 576 217.5"
   version="1.1"
   xml:space="preserve"
   style="clip-rule:evenodd;fill-rule:evenodd;stroke-linecap:round;stroke-linejoin:round;stroke-miterlimit:1.5"
   id="svg17"
   sodipodi:docname="green_case_one_ebay_en.svg"
   inkscape:version="1.4.3 (0d15f75, 2025-12-25)"
   xmlns:inkscape="http://www.inkscape.org/namespaces/inkscape"
   xmlns:sodipodi="http://sodipodi.sourceforge.net/DTD/sodipodi-0.dtd"
   xmlns="http://www.w3.org/2000/svg"
   xmlns:svg="http://www.w3.org/2000/svg"><defs
   id="defs17" /><sodipodi:namedview
   id="namedview17"
   pagecolor="#ffffff"
   bordercolor="#000000"
   borderopacity="0.25"
   inkscape:showpageshadow="2"
   inkscape:pageopacity="0.0"
   inkscape:pagecheckerboard="0"
   inkscape:deskcolor="#d1d1d1"
   inkscape:zoom="2.0972222"
   inkscape:cx="230.30464"
   inkscape:cy="154.72848"
   inkscape:window-width="2560"
   inkscape:window-height="1334"
   inkscape:window-x="2869"
   inkscape:window-y="-11"
   inkscape:window-maximized="1"
   inkscape:current-layer="blue_case_de"
   showgrid="false" />
    <g
   transform="translate(-21,-368)"
   id="g17">
        <g
   id="blue_case_de"
   transform="translate(0,51.1207)">
            <g
   id="border_template"
   transform="matrix(4.87356,0,0,2.1715232,-149.336,274.0873)">
                <path
   d="m 153,32 c 0,-1.104 -0.46,-2 -1.026,-2 H 36.026 C 35.46,30 35,30.896 35,32 v 86 c 0,1.104 0.46,2 1.026,2 h 115.948 c 0.566,0 1.026,-0.896 1.026,-2 z"
   style="fill:#ffffff"
   id="path1" />
                <path
   d="m 153,32 c 0,-1.104 -0.46,-2 -1.026,-2 H 36.026 C 35.46,30 35,30.896 35,32 v 86 c 0,1.104 0.46,2 1.026,2 h 115.948 c 0.566,0 1.026,-0.896 1.026,-2 z M 36.231,32.4 v 85.2 H 151.769 V 32.4 Z"
   style="fill:#008000;fill-opacity:1"
   id="path2" />
            </g>
            <g
   transform="translate(-2.19632,-6.58598)"
   id="g2">
                <text
   x="24.239"
   y="337"
   style="font-style:normal;font-variant:normal;font-weight:normal;font-stretch:normal;font-size:18.149px;font-family:ArialMT, Arial, sans-serif;-inkscape-font-specification:'ArialMT, Arial, sans-serif, Normal';font-variant-ligatures:normal;font-variant-caps:normal;font-variant-numeric:normal;font-variant-east-asian:normal;fill:#195ace"
   id="text2"><tspan
     sodipodi:role="line"
     id="tspan330"
     x="24.239"
     y="337">https://www.ebay.de</tspan></text>
                <rect
   x="24.239"
   y="338.923"
   width="162.27321"
   height="1.329"
   style="fill:#195ace;stroke-width:0.802211"
   id="rect2" />
            </g>
            <g
   id="text_in_border"
   transform="translate(-16.2752,8.6588)">
                <g
   id="URL_optimized_readability"
   transform="translate(-1,-1)">
                    
                    
                    <text
   x="56.824997"
   y="399"
   style="font-style:normal;font-variant:normal;font-weight:bold;font-stretch:normal;font-size:18.149px;font-family:Arial-BoldMT, Arial, sans-serif;-inkscape-font-specification:'Arial-BoldMT, Arial, sans-serif, Bold';font-variant-ligatures:normal;font-variant-caps:normal;font-variant-numeric:normal;font-variant-east-asian:normal"
   id="text5"><tspan
     sodipodi:role="line"
     id="tspan332"
     x="56.824997"
     y="399">e b a y . d e</tspan></text>
                    <text
   x="160.60501"
   y="399"
   style="font-style:normal;font-variant:normal;font-weight:normal;font-stretch:normal;font-size:18.149px;font-family:ArialMT, Arial, sans-serif;-inkscape-font-specification:'ArialMT, Arial, sans-serif, Normal';font-variant-ligatures:normal;font-variant-caps:normal;font-variant-numeric:normal;font-variant-east-asian:normal;fill:#0000ff;fill-opacity:1"
   id="text6"><tspan
     sodipodi:role="line"
     id="tspan18"
     x="160.60501"
     y="399">[..]</tspan></text>
                </g>
                <g
   id="first_line"
   transform="translate(-2.25699)">
                    <text
   x="58"
   y="362"
   style="font-style:normal;font-variant:normal;font-weight:normal;font-stretch:normal;font-size:18.149px;font-family:ArialMT, Arial, sans-serif;-inkscape-font-specification:'ArialMT, Arial, sans-serif, Normal';font-variant-ligatures:normal;font-variant-caps:normal;font-variant-numeric:normal;font-variant-east-asian:normal"
   id="text7"><tspan
     sodipodi:role="line"
     id="tspan1"
     x="58"
     y="362">Deposited Domain:</tspan></text>
                </g>
                <g
   transform="translate(-5.45944,3)"
   id="g12">
                    <text
   x="62"
   y="434.78699"
   style="font-style:normal;font-variant:normal;font-weight:normal;font-stretch:normal;font-size:18.149px;font-family:ArialMT, Arial, sans-serif;-inkscape-font-specification:'ArialMT, Arial, sans-serif, Normal';font-variant-ligatures:normal;font-variant-caps:normal;font-variant-numeric:normal;font-variant-east-asian:normal"
   id="text8"><tspan
     sodipodi:role="line"
     id="tspan9"
     x="62"
     y="434.78699">Low risk: the risk of clicking the link is considered to be low</tspan></text>
                    <text
   x="62"
   y="458.53"
   style="font-style:normal;font-variant:normal;font-weight:normal;font-stretch:normal;font-size:18.149px;font-family:ArialMT, Arial, sans-serif;-inkscape-font-specification:'ArialMT, Arial, sans-serif, Normal';font-variant-ligatures:normal;font-variant-caps:normal;font-variant-numeric:normal;font-variant-east-asian:normal"
   id="text9"><tspan
     sodipodi:role="line"
     id="tspan2"
     x="62"
     y="458.53">because of the trustworthiness of the domain of this URL.</tspan></text>
                    
                    
                    
                </g>
                <g
   id="more_information_classification"
   transform="translate(1.4604612,-93.413809)">
                    <g
   transform="translate(-592.961,-556.608)"
   id="g13">
                        <text
   x="695"
   y="1149.09"
   style="font-style:normal;font-variant:normal;font-weight:normal;font-stretch:normal;font-size:19px;font-family:ArialMT, Arial, sans-serif;-inkscape-font-specification:'ArialMT, Arial, sans-serif, Normal';font-variant-ligatures:normal;font-variant-caps:normal;font-variant-numeric:normal;font-variant-east-asian:normal"
   id="text13"><tspan
     sodipodi:role="line"
     id="tspan10"
     x="695"
     y="1149.09">More information on this classification</tspan></text>
                        <rect
   x="695"
   y="1151.1"
   width="317.46234"
   height="1.392"
   id="rect13"
   style="stroke-width:0.990378" />
                    </g>
                    <g
   id="info_icon"
   transform="translate(-591.961,-552.438)">
                        <g
   id="information_icon_text"
   transform="translate(0,0.499922)">
                            <g
   transform="matrix(30,0,0,30,658.802,1148.72)"
   id="g14">
                                <path
   d="M 0.199,0 C 0.181,0.004 0.177,0.008 0.127,0.009 0.118,0.009 0.108,0.006 0.102,0.005 0.076,0 0.064,-0.008 0.065,-0.018 v -0.003 c 0.016,-0.092 0.025,-0.145 0.028,-0.16 0.01,-0.062 0.014,-0.116 0.014,-0.161 0,-0.01 -0.004,-0.017 -0.014,-0.021 -0.01,-0.003 -0.022,-0.005 -0.037,-0.005 -0.015,0 -0.025,0.001 -0.03,0.001 l 0.002,-0.026 c 0.009,0.002 0.017,0.002 0.025,0.002 h 0.024 c 0.016,0 0.039,-0.004 0.069,-0.012 0.031,-0.008 0.053,-0.012 0.067,-0.012 0.011,0 0.018,0.004 0.02,0.012 0.003,0.007 0.004,0.015 0.004,0.021 0,0.056 -0.004,0.123 -0.013,0.203 -0.006,0.041 -0.01,0.082 -0.015,0.122 l 0.052,-0.011 0.005,0.031 c -0.01,0.008 -0.02,0.015 -0.03,0.02 C 0.226,-0.011 0.212,-0.003 0.199,0 Z"
   style="fill:#0a1457;fill-rule:nonzero"
   id="path13" />
                            </g>
                            <g
   transform="matrix(1.75018,0,0,1.75018,-498.398,-849.473)"
   id="g15">
                                <circle
   cx="664.36902"
   cy="1132.35"
   r="1.3329999"
   style="fill:#0a1457"
   id="circle14" />
                            </g>
                        </g>
                        <g
   transform="matrix(0.9375,0,0,0.9375,41.6198,72.1875)"
   id="g16">
                            <circle
   cx="663"
   cy="1139"
   r="16"
   style="fill:none;stroke:#0a1457;stroke-width:3px"
   id="circle15" />
                        </g>
                    </g>
                </g>
            </g>
            <g
   id="mouse_cursor"
   transform="matrix(0.565212,0,0,0.565212,-97.81821,188.138)">
                <path
   d="m 353,272 c 0.833,1.715 2.845,3.407 4,5.292 1.544,2.523 5.266,9.841 5.266,9.841 0,0 2.684,4.556 4.734,5.867 2.05,1.311 5.233,2 7.566,2 2.246,0 4.568,-0.75 6.434,-2 2.239,-1.5 5.774,-3.936 7,-7 1.333,-3.333 1,-9.167 1,-13 0,-3.35 -0.412,-8.122 -1,-10 -1.038,-3.315 -5.713,-2.134 -5.643,-0.935 0.15,2.567 0.077,4.068 0.077,4.068 0,0 0.138,-4.778 -0.434,-6.133 -0.467,-1.107 -1.969,-2 -3,-2 -1.031,0 -3.468,0.29 -3.184,2 0.284,1.71 0,6 0,6 0,0 0.303,-4.5 0,-6 -0.231,-1.146 -1.013,-2.5 -1.816,-3 -0.803,-0.5 -2.231,-0.138 -3,0 -0.595,0.107 -1.612,0.829 -1.612,0.829 l 0.046,8.171 c 0,0 -0.008,-18.903 -0.474,-20.769 -0.566,-2.264 -6.228,-2.582 -7,0 C 361.187,247.812 362,272 362,272 c 0,0 -4.812,-6.643 -6,-7 -1.188,-0.357 -3.723,-0.123 -4,2 -0.277,2.123 0.257,3.471 1,5 z"
   style="fill:#ffffff;stroke:#000000;stroke-width:2.03px"
   id="path16" />
            </g>
        </g>
    </g>
</svg>

<?xml version="1.0" encoding="UTF-8" standalone="no"?>
<svg
   width="100%"
   height="100%"
   viewBox="0 0 576 248"
   version="1.1"
   xml:space="preserve"
   style="fill-rule:evenodd;clip-rule:evenodd;stroke-linecap:round;stroke-linejoin:round;stroke-miterlimit:1.5;"
   id="svg17"
   sodipodi:docname="green_case_one_en_ebay.svg"
   inkscape:version="1.2.2 (732a01da63, 2022-12-09)"
   xmlns:inkscape="http://www.inkscape.org/namespaces/inkscape"
   xmlns:sodipodi="http://sodipodi.sourceforge.net/DTD/sodipodi-0.dtd"
   xmlns="http://www.w3.org/2000/svg"
   xmlns:svg="http://www.w3.org/2000/svg"><defs
   id="defs17" /><sodipodi:namedview
   id="namedview17"
   pagecolor="#ffffff"
   bordercolor="#000000"
   borderopacity="0.25"
   inkscape:showpageshadow="2"
   inkscape:pageopacity="0.0"
   inkscape:pagecheckerboard="0"
   inkscape:deskcolor="#d1d1d1"
   inkscape:zoom="2.0972222"
   inkscape:cx="168.07947"
   inkscape:cy="124.45033"
   inkscape:window-width="2560"
   inkscape:window-height="1369"
   inkscape:window-x="1912"
   inkscape:window-y="-8"
   inkscape:window-maximized="1"
   inkscape:current-layer="blue_case_de"
   showgrid="false" />
    <g
   transform="matrix(1,0,0,1,-21,-368)"
   id="g17">
        <g
   id="blue_case_de"
   transform="matrix(1,0,0,1,0,51.1207)">
            <g
   id="border_template"
   transform="matrix(4.87356,0,0,2.5,-149.336,264.233)">
                <path
   d="M153,32C153,30.896 152.54,30 151.974,30L36.026,30C35.46,30 35,30.896 35,32L35,118C35,119.104 35.46,120 36.026,120L151.974,120C152.54,120 153,119.104 153,118L153,32Z"
   style="fill:white;"
   id="path1" />
                <path
   d="M153,32C153,30.896 152.54,30 151.974,30L36.026,30C35.46,30 35,30.896 35,32L35,118C35,119.104 35.46,120 36.026,120L151.974,120C152.54,120 153,119.104 153,118L153,32ZM36.231,32.4L36.231,117.6L151.769,117.6L151.769,32.4L36.231,32.4Z"
   style="fill:#008000;fill-opacity:1"
   id="path2" />
            </g>
            <g
   transform="matrix(1,0,0,1,-2.19632,-6.58598)"
   id="g2">
                <text
   x="24.239px"
   y="337px"
   style="font-family:ArialMT, Arial, sans-serif;font-size:18.149px;fill:#195ace;-inkscape-font-specification:'ArialMT, Arial, sans-serif, Normal';font-weight:normal;font-style:normal;font-stretch:normal;font-variant:normal;font-variant-ligatures:normal;font-variant-caps:normal;font-variant-numeric:normal;font-variant-east-asian:normal"
   id="text2"><tspan
     sodipodi:role="line"
     id="tspan330">https://www.ebay.de</tspan></text>
                <rect
   x="24.239"
   y="338.923"
   width="162.27321"
   height="1.329"
   style="fill:#195ace;stroke-width:0.802211"
   id="rect2" />
            </g>
            <g
   id="text_in_border"
   transform="matrix(1,0,0,1,-16.2752,8.6588)">
                <g
   id="URL_optimized_readability"
   transform="matrix(1,0,0,1,-1,-1)">
                    
                    
                    <text
   x="56.824997"
   y="399"
   style="font-style:normal;font-variant:normal;font-weight:bold;font-stretch:normal;font-size:18.149px;font-family:Arial-BoldMT, Arial, sans-serif;-inkscape-font-specification:'Arial-BoldMT, Arial, sans-serif, Bold';font-variant-ligatures:normal;font-variant-caps:normal;font-variant-numeric:normal;font-variant-east-asian:normal"
   id="text5"><tspan
     sodipodi:role="line"
     id="tspan332">e b a y . d e</tspan></text>
                    <text
   x="160.60501"
   y="399"
   style="font-style:normal;font-variant:normal;font-weight:normal;font-stretch:normal;font-size:18.149px;font-family:ArialMT, Arial, sans-serif;-inkscape-font-specification:'ArialMT, Arial, sans-serif, Normal';font-variant-ligatures:normal;font-variant-caps:normal;font-variant-numeric:normal;font-variant-east-asian:normal;fill:#0000ff;fill-opacity:1"
   id="text6"><tspan
     sodipodi:role="line"
     id="tspan18"
     x="160.60501"
     y="399">[..]</tspan></text>
                </g>
                <g
   id="first_line"
   transform="matrix(1,0,0,1,-2.25699,0)">
                    <text
   x="58px"
   y="362px"
   style="font-family:ArialMT, Arial, sans-serif;font-size:18.149px;-inkscape-font-specification:'ArialMT, Arial, sans-serif, Normal';font-weight:normal;font-style:normal;font-stretch:normal;font-variant:normal;font-variant-ligatures:normal;font-variant-caps:normal;font-variant-numeric:normal;font-variant-east-asian:normal"
   id="text7"><tspan
     sodipodi:role="line"
     id="tspan1">Deposited URL (also called web address):</tspan></text>
                </g>
                <g
   transform="matrix(1,0,0,1,-5.45944,3)"
   id="g12">
                    <text
   x="62px"
   y="434.787px"
   style="font-family:ArialMT, Arial, sans-serif;font-size:18.149px;-inkscape-font-specification:'ArialMT, Arial, sans-serif, Normal';font-weight:normal;font-style:normal;font-stretch:normal;font-variant:normal;font-variant-ligatures:normal;font-variant-caps:normal;font-variant-numeric:normal;font-variant-east-asian:normal"
   id="text8"><tspan
     sodipodi:role="line"
     id="tspan9">Low risk: the risk of clicking the link is considered to be low</tspan></text>
                    <text
   x="62px"
   y="458.53px"
   style="font-family:ArialMT, Arial, sans-serif;font-size:18.149px;-inkscape-font-specification:'ArialMT, Arial, sans-serif, Normal';font-weight:normal;font-style:normal;font-stretch:normal;font-variant:normal;font-variant-ligatures:normal;font-variant-caps:normal;font-variant-numeric:normal;font-variant-east-asian:normal"
   id="text9"><tspan
     sodipodi:role="line"
     id="tspan4">because of the trustworthiness of the domain (</tspan></text>
                    
                    <text
   x="433.46127"
   y="458.33823"
   style="font-style:normal;font-variant:normal;font-weight:bold;font-stretch:normal;font-size:18.149px;font-family:Arial-BoldMT, Arial, sans-serif;-inkscape-font-specification:'Arial-BoldMT, Arial, sans-serif, Bold';font-variant-ligatures:normal;font-variant-caps:normal;font-variant-numeric:normal;font-variant-east-asian:normal"
   id="text11"><tspan
     sodipodi:role="line"
     id="tspan5"
     x="433.46127"
     y="458.33823">bold area</tspan></text>
                    <text
   x="513.25623"
   y="459.38458"
   style="font-style:normal;font-variant:normal;font-weight:normal;font-stretch:normal;font-size:18.149px;font-family:ArialMT, Arial, sans-serif;-inkscape-font-specification:'ArialMT, Arial, sans-serif, Normal';font-variant-ligatures:normal;font-variant-caps:normal;font-variant-numeric:normal;font-variant-east-asian:normal"
   id="text12"><tspan
     sodipodi:role="line"
     id="tspan8">) of</tspan></text>
                <text
   x="40.680065"
   y="492.31079"
   style="fill-rule:evenodd;clip-rule:evenodd;stroke-linecap:round;stroke-linejoin:round;stroke-miterlimit:1.5;font-style:normal;font-variant:normal;font-weight:normal;font-stretch:normal;font-size:18.149px;font-family:ArialMT, Arial, sans-serif;-inkscape-font-specification:'ArialMT, Arial, sans-serif, Normal';font-variant-ligatures:normal;font-variant-caps:normal;font-variant-numeric:normal;font-variant-east-asian:normal"
   id="text9-9"
   transform="translate(21.73464,-11.6588)"><tspan
     sodipodi:role="line"
     id="tspan7">this URL.</tspan></text></g>
                <g
   id="more_information_classification"
   transform="matrix(1,0,0,1,0.98364,-65.9701)">
                    <g
   transform="matrix(1,0,0,1,-592.961,-556.608)"
   id="g13">
                        <text
   x="695px"
   y="1149.09px"
   style="font-family:ArialMT, Arial, sans-serif;font-size:19px;-inkscape-font-specification:'ArialMT, Arial, sans-serif, Normal';font-weight:normal;font-style:normal;font-stretch:normal;font-variant:normal;font-variant-ligatures:normal;font-variant-caps:normal;font-variant-numeric:normal;font-variant-east-asian:normal"
   id="text13"><tspan
     sodipodi:role="line"
     id="tspan10">More information on this classification</tspan></text>
                        <rect
   x="695"
   y="1151.1"
   width="317.46234"
   height="1.392"
   id="rect13"
   style="stroke-width:0.990378" />
                    </g>
                    <g
   id="info_icon"
   transform="matrix(1,0,0,1,-591.961,-552.438)">
                        <g
   id="information_icon_text"
   transform="matrix(1,0,0,1,0,0.499922)">
                            <g
   transform="matrix(30,0,0,30,658.802,1148.72)"
   id="g14">
                                <path
   d="M0.199,-0C0.181,0.004 0.177,0.008 0.127,0.009C0.118,0.009 0.108,0.006 0.102,0.005C0.076,-0 0.064,-0.008 0.065,-0.018L0.065,-0.021C0.081,-0.113 0.09,-0.166 0.093,-0.181C0.103,-0.243 0.107,-0.297 0.107,-0.342C0.107,-0.352 0.103,-0.359 0.093,-0.363C0.083,-0.366 0.071,-0.368 0.056,-0.368C0.041,-0.368 0.031,-0.367 0.026,-0.367L0.028,-0.393C0.037,-0.391 0.045,-0.391 0.053,-0.391L0.077,-0.391C0.093,-0.391 0.116,-0.395 0.146,-0.403C0.177,-0.411 0.199,-0.415 0.213,-0.415C0.224,-0.415 0.231,-0.411 0.233,-0.403C0.236,-0.396 0.237,-0.388 0.237,-0.382C0.237,-0.326 0.233,-0.259 0.224,-0.179C0.218,-0.138 0.214,-0.097 0.209,-0.057L0.261,-0.068L0.266,-0.037C0.256,-0.029 0.246,-0.022 0.236,-0.017C0.226,-0.011 0.212,-0.003 0.199,-0Z"
   style="fill:rgb(10,20,87);fill-rule:nonzero;"
   id="path13" />
                            </g>
                            <g
   transform="matrix(1.75018,0,0,1.75018,-498.398,-849.473)"
   id="g15">
                                <circle
   cx="664.369"
   cy="1132.35"
   r="1.333"
   style="fill:rgb(10,20,87);"
   id="circle14" />
                            </g>
                        </g>
                        <g
   transform="matrix(0.9375,0,0,0.9375,41.6198,72.1875)"
   id="g16">
                            <circle
   cx="663"
   cy="1139"
   r="16"
   style="fill:none;stroke:rgb(10,20,87);stroke-width:3px;"
   id="circle15" />
                        </g>
                    </g>
                </g>
            </g>
            <g
   id="mouse_cursor"
   transform="matrix(0.565212,0,0,0.565212,-97.81821,188.138)">
                <path
   d="m 353,272 c 0.833,1.715 2.845,3.407 4,5.292 1.544,2.523 5.266,9.841 5.266,9.841 0,0 2.684,4.556 4.734,5.867 2.05,1.311 5.233,2 7.566,2 2.246,0 4.568,-0.75 6.434,-2 2.239,-1.5 5.774,-3.936 7,-7 1.333,-3.333 1,-9.167 1,-13 0,-3.35 -0.412,-8.122 -1,-10 -1.038,-3.315 -5.713,-2.134 -5.643,-0.935 0.15,2.567 0.077,4.068 0.077,4.068 0,0 0.138,-4.778 -0.434,-6.133 -0.467,-1.107 -1.969,-2 -3,-2 -1.031,0 -3.468,0.29 -3.184,2 0.284,1.71 0,6 0,6 0,0 0.303,-4.5 0,-6 -0.231,-1.146 -1.013,-2.5 -1.816,-3 -0.803,-0.5 -2.231,-0.138 -3,0 -0.595,0.107 -1.612,0.829 -1.612,0.829 l 0.046,8.171 c 0,0 -0.008,-18.903 -0.474,-20.769 -0.566,-2.264 -6.228,-2.582 -7,0 C 361.187,247.812 362,272 362,272 c 0,0 -4.812,-6.643 -6,-7 -1.188,-0.357 -3.723,-0.123 -4,2 -0.277,2.123 0.257,3.471 1,5 z"
   style="fill:#ffffff;stroke:#000000;stroke-width:2.03px"
   id="path16" />
            </g>
        </g>
    </g>
</svg>
